X: 1
T: Preston's
M: 4/4
L: 1/8
R: reel
K: Gmaj
GB B2 GBdB | FA A2 FA d2 | GB B2 GBdg | fgaf gedB|
GB B2 GBdB | FA A2 FA d2 | GB B2 GBdg | fgaf g2 de|
gb b2 fgab | agef ge d2 | gb b2 fgab | agef g2 de|
gb b2 fgab | agef ge d2 | abaf gfed | egfa gedB|
